build/images/3d-p.svg

<?xml version="1.0" encoding="UTF-8"?>
<svg width="29px" height="24px" viewBox="0 0 29 24" version="1.1" xmlns="http://www.w3.org/2000/svg" xmlns:xlink="http://www.w3.org/1999/xlink">
    <!-- Generator: sketchtool 63.1 (101010) - https://sketch.com -->
    <title>FA0AACA2-1A3B-4CCC-8FB4-1D7E62423FE7</title>
    <desc>Created with sketchtool.</desc>
    <g id="Page-1" stroke="none" stroke-width="1" fill="none" fill-rule="evenodd">
        <g id="Kupa-shop---design" transform="translate(-379.000000, -1410.000000)" fill="#333333" fill-rule="nonzero">
            <g id="projects" transform="translate(359.000000, 895.000000)">
                <g id="size" transform="translate(20.000000, 515.000000)">
                    <path d="M28.8929698,21.3100171 L27.8062791,18.6525128 C27.6587163,18.2919658 27.2508279,18.1207521 26.8948698,18.2701538 C26.5393837,18.4196923 26.3705093,18.8331624 26.5180047,19.1941197 L26.9599512,20.2749402 L24.6033302,19.2862222 L24.6033302,8.74912821 C24.6033302,8.45196581 24.4202256,8.18652991 24.1446581,8.08478632 L15.1703721,4.77018803 L15.1703721,2.45476923 L15.986486,3.28225641 C16.1226512,3.42030769 16.3011023,3.48929915 16.4796884,3.48929915 C16.6580047,3.48929915 16.8365233,3.42023932 16.9727558,3.28225641 C17.245086,3.00608547 17.245086,2.5585641 16.9727558,2.28252991 L14.9661581,0.248205128 C14.6937605,-0.0278290598 14.2524884,-0.027965812 13.9800907,0.248205128 L11.9734256,2.28252991 C11.7011628,2.5585641 11.7011628,3.00608547 11.9734256,3.28225641 C12.2456884,3.55822222 12.6872977,3.55835897 12.9597628,3.28225641 L13.7758093,2.45476923 L13.7758093,4.77018803 L4.8015907,8.0848547 C4.5260907,8.18659829 4.3429186,8.45203419 4.3429186,8.74919658 L4.3429186,19.2862222 L1.98629767,20.2749402 L2.42824419,19.1941197 C2.57580698,18.8332991 2.40693256,18.4196923 2.05131163,18.2701538 C1.69515116,18.120547 1.28746512,18.2918291 1.13996977,18.6525128 L0.0532790698,21.3100171 C-0.0176697674,21.4832137 -0.0176697674,21.6780171 0.0530767442,21.8512821 C0.123890698,22.0244786 0.259583721,22.162188 0.430481395,22.2339145 L3.05187907,23.3355897 C3.13914884,23.3723077 3.22958837,23.3896752 3.31854419,23.3896752 C3.59202093,23.3896752 3.85173953,23.2255043 3.96295116,22.953094 C4.11044651,22.5926154 3.94170698,22.1789402 3.58581628,22.0293333 L2.51969535,21.581265 L5.02718372,20.529094 L14.2345488,23.9297778 C14.2345488,23.9297778 14.3657233,23.9725128 14.4740349,23.9725128 C14.5823465,23.9725128 14.7115651,23.9297778 14.7115651,23.9297778 L23.9189302,20.529094 L26.4264186,21.581265 L25.3602302,22.0293333 C25.0044744,22.1789402 24.8357349,22.5924786 24.9830953,22.953094 C25.0943744,23.2254359 25.3540256,23.3896752 25.6275023,23.3896752 C25.7165256,23.3896752 25.8068977,23.3723077 25.8942349,23.3355897 L28.5156326,22.2339145 C28.6864628,22.162188 28.8221558,22.024547 28.8930372,21.8512821 C28.9637837,21.6779487 28.9637837,21.4832137 28.8929698,21.3100171 Z M13.7757419,22.2557949 L6.93450698,19.7292308 L13.7757419,16.9167863 L13.7757419,22.2557949 Z M13.7757419,15.3921368 L5.7374814,18.6815043 L5.7374814,9.83904274 L13.7757419,13.1282051 L13.7757419,15.3921368 Z M13.7757419,11.6036239 L6.9318093,8.80294017 L13.7757419,6.2751453 L13.7757419,11.6036239 Z M15.1703721,6.2751453 L22.0143721,8.80294017 L15.1703721,11.6036239 L15.1703721,6.2751453 Z M15.1703721,22.2557949 L15.1703721,16.9167863 L22.011607,19.7292308 L15.1703721,22.2557949 Z M23.2085651,18.6815043 L15.1703721,15.3921368 L15.1703721,13.1282735 L23.2087,9.83911111 L23.2087,18.6815043 L23.2085651,18.6815043 Z" id="Shape"></path>
                </g>
            </g>
        </g>
    </g>
</svg>

<svg width="29" height="24" xmlns="http://www.w3.org/2000/svg"><g id="Page-1" stroke="none" stroke-width="1" fill="none" fill-rule="evenodd"><g id="Kupa-shop---design" transform="translate(-379 -1410)" fill="#333" fill-rule="nonzero"><g id="projects" transform="translate(359 895)"><g id="size" transform="translate(20 515)"><path d="M28.893 21.31l-1.087-2.657a.694.694 0 00-.911-.383.71.71 0 00-.377.924l.442 1.08-2.357-.988V8.75a.706.706 0 00-.458-.664L15.17 4.77V2.455l.816.827a.69.69 0 00.987 0 .714.714 0 000-1L14.966.249a.69.69 0 00-.986 0l-2.007 2.035a.714.714 0 000 1 .69.69 0 00.987 0l.816-.828V4.77L4.802 8.085a.707.707 0 00-.46.664v10.537l-2.356.989.442-1.08a.71.71 0 00-.377-.925.694.694 0 00-.911.383L.053 21.31a.716.716 0 000 .541c.07.173.207.311.377.383l2.622 1.102a.697.697 0 00.911-.382.71.71 0 00-.377-.925l-1.066-.448 2.507-1.052 9.208 3.4s.13.044.239.044c.108 0 .238-.043.238-.043l9.207-3.4 2.507 1.051-1.066.448a.71.71 0 00-.377.924.697.697 0 00.911.383l2.622-1.102a.703.703 0 00.377-.383.716.716 0 000-.541zm-15.117.946l-6.841-2.527 6.84-2.812v5.339zm0-6.864l-8.039 3.29V9.839l8.039 3.29v2.263zm0-3.788L6.932 8.803l6.844-2.528v5.329zm1.394-5.329l6.844 2.528-6.844 2.8V6.276zm0 15.98v-5.338l6.842 2.812-6.842 2.527zm8.039-3.573l-8.039-3.29v-2.264l8.04-3.288v8.843z" id="Shape"/></g></g></g></g></svg>
